X:383
T: UND WIR SASSEN EINST VERGNUEGT
N: B0457
O: Europa, Mitteleuropa, Deutschland, Rheinland, Beckrath
R: Liebes - Lied, Leid, Klage, Abschied
M: 4/4
L: 1/16
K: C
G,3F, | E,3E,E,3E,E,2G,2C3D | C4B,4z4
C4 | C4G,2G,2A,3G,F,2E,2 | G,8z4
G,2G,2 | E4C3CC4G,2C2 | B,4A,4z4
D2D2 | C2B,2A,2G,2G,4A,2B,2 | C8z4
G,2G,2 | E4C3CC4G,2C2 | B,4A,4z4
D2D2 | C2B,2A,2G,2G,4A,2B,2 | C8z4

@@@ Tune index: 2186
